X:35
M:C
L:1/8
Q:1/4=140
K:G Minor
f|d>Bf>B g>Bd>f|F<F F>D F2 F>f|d>fB>d c>B c<d|G<G G>^F G2 G>f|
d>Bf>B g>Bf>e|d>Bc>A ~B>GF>D|b>ag>f d<b f>B|A>ed>^F G2G||

